X:1
T:Title
%%score { ( 1 2 ) | ( 3 4 ) }
L:1/8
M:6/8
K:F
V:1 treble nm="Grand Piano"
V:2 treble 
V:3 bass 
V:4 bass 
V:1
 z3 z z[Q:1/4=84] z/ G/ | [CFA]>[CFA][CFA] [CEG][CF][CEG] | A>CD F2 A | c>dc AGF | %4
[M:5/8] E3- [^CEA]2 |[M:1/8] [^CEA] |[M:3/4] [DFA]>[B,DG] [B,D] [DG]2 [Fd]/[Fd]/ | d>c A c2 A | %8
 [EG]>[FA] [GB][FA]- [FA]/[FA]/G | F6 | c>c [Ec] [Fc]3 | [FA]>[FA] [^CEA] [DFA]3 | G>G G F2 G | %13
 A6 | c>c dc FG | A>A G F3 | [EG]>[FA] [GB] [FA]2 G |[M:5/8] F-F- F3 |] %18
V:2
 z3 z2 F | x6 | x6 | x6 |[M:5/8] [CG]3 z2 |[M:1/8] x |[M:3/4] x6 | x6 | x6 | x6 | x6 | x6 | x6 | %13
 x6 | x6 | x6 | x6 |[M:5/8] x5 |] %18
V:3
 z3 z2 A,/B,/ | F,>F,F, C,A,,C, | [F,CF]>[F,A,][F,B,] [F,A,]2 [F,CF] | %3
 [F,A,F]>[F,B,F][F,A,F] [F,CF][F,B,][F,A,C] |[M:5/8] C,2 B,, A,,2 |[M:1/8] A,, | %6
[M:3/4] B,,>B,, B,, [B,,B,]2 [B,,B,]/[B,,B,]/ | [F,B,F]>[F,A,F] [F,CF] [F,A,F]2 [F,CF] | %8
 [C,C]>[C,C] [C,C][C,C]- [C,C]/[C,C]/[C,B,C] | [F,A,C]6 | [F,A,F]>[F,A,F] [C,G,] [F,A,]3 | %11
 [D,D]>[D,D] A,, D,3 | [CE]>[CE] [B,CE] [A,C]2 [G,CE] | [F,CF]6 | %14
 [F,A,F]>[F,A,F] [F,B,F][F,A,F] [F,A,][F,B,F] | [F,CF]>[F,CF] [E,A,^C] [D,A,D]3 | %16
 [C,C]>[C,C] [C,C] [C,C]2 [C,B,C] |[M:5/8] [F,A,C]-[F,A,C]- [F,A,C]3 |] %18
V:4
 z3 z2 F, | x6 | x6 | x6 |[M:5/8] x5 |[M:1/8] x |[M:3/4] x6 | x6 | x6 | x6 | x6 | x6 | x6 | x6 | %14
 x6 | x6 | x6 |[M:5/8] x5 |] %18

